X: 258
T: Fang fengzheng
%%abc-version 2.0
%%abcx-abcm2ps-target-version 5.9.1 (29 Sep 2008)
%%abc-creator hum2abc beta
%%abcx-conversion-date 2013/10/02 07:52:29
%%abc-edited-by Helmut Schaffrath
%%humdrum-veritas 4283941504
%%humdrum-veritas-data 875284157
%%continueall 1
%%barnumbers 0
L: 1/8
M: 2/4
K: Bb
f A/ B< c f/ [I:setbarnb 1]| 
f A/ B/c2 | 
c f e f | 
f/ g/ f/ f/c2 | 
f A A B | 
c e d c | 
B A/ F/ F B | 
F4 |]  



